images/facebook.svg

<?xml version="1.0" encoding="UTF-8"?>
<svg width="24px" height="24px" viewBox="0 0 24 24" version="1.1" xmlns="http://www.w3.org/2000/svg" xmlns:xlink="http://www.w3.org/1999/xlink">
    <!-- Generator: Sketch 48.2 (47327) - http://www.bohemiancoding.com/sketch -->
    <title>facebook</title>
    <desc>Created with Sketch.</desc>
    <defs></defs>
    <g id="Page-1" stroke="none" stroke-width="1" fill="none" fill-rule="evenodd">
        <g id="facebook" fill="#FFFFFF">
            <path d="M20.4028103,4.77751756 L17.3676815,4.77751756 C16.2060832,4.77751756 15.2224865,5.18969143 14.4168618,6.01405152 C13.6112372,6.83841162 13.2084309,7.83137593 13.2084309,8.99297424 L13.2084309,11.971897 L10.7915691,11.971897 L10.7915691,15.5690867 L13.2084309,15.5690867 L13.2084309,23.9437939 L16.8056206,23.9437939 L16.8056206,15.5690867 L20.4028103,15.5690867 L20.4028103,11.971897 L16.8056206,11.971897 L16.8056206,9.55503513 C16.8056206,9.25526782 16.9180317,8.98360778 17.1428571,8.74004684 C17.3676826,8.4964859 17.6487103,8.37470726 17.9859485,8.37470726 L20.4028103,8.37470726 L20.4028103,4.77751756 Z M0,0 L24,0 L24,23.9437939 L0,23.9437939 L0,0 Z" id="icon/social/facebook"></path>
        </g>
    </g>
</svg>

<svg width="24" height="24" xmlns="http://www.w3.org/2000/svg"><path d="M20.403 4.778h-3.035c-1.162 0-2.146.412-2.951 1.236-.806.824-1.209 1.817-1.209 2.979v2.979h-2.416v3.597h2.416v8.375h3.598v-8.375h3.597v-3.597h-3.597V9.555c0-.3.112-.571.337-.815a1.1 1.1 0 0 1 .843-.365h2.417V4.778zM0 0h24v23.944H0V0z" fill="#FFF" fill-rule="evenodd"/></svg>
